!!!OTL: GEH MEIN HANSEI
!!!ARE: Europa, Mitteleuropa, Deutschland, Ober - Bayern
!!!SCT: E0519
!!!YEM: Copyright 1995, estate of Helmut Schaffrath.
**kern
*ICvox
*Ivox
*M4/4
*k[f#c#]
*D:
=1
{4.a
8f#
4.b
8a
=2
4.a
8g
4c#
4c#}
=3
{4.a
8g
4.b
8a
=4
4.a
8f#
4d
4A}
=5
{8d
8e
8f#
8g
8a
8b
8cc#
8dd
=6
4.ee
8dd
4b}
{8e
8e
=7
4.cc#
8b
8a
8g
8b
8a
=8
4d
2.r}
==
!!!AGN: Liebes - Lied
!!!ONB: ESAC (Essen Associative Code) Database: ERK1
!!!AMT: simple quadruple
!!!AIN: vox
!!!EED: Helmut Schaffrath
!!!EEV: 1.0
*-
